X: 43246
T: Wolfes
R: reel
M: 4/4
K: Eminor
|:Bege BAGA|Bege fgfe|Bege BAGA|BcBA GEE2:|
|:e~B3 efgf|e~c3 efge|f~d3 f~d3|fdad bdad|
e~B3 efgf|e~c3 efge|efge fgaf|gfed e4:|

